icons/1_Primary/Revolt.svg

<svg width="1024" height="1024" viewBox="0 0 1024 1024" fill="none" xmlns="http://www.w3.org/2000/svg">
<g clip-path="url(#clip0_2_3336)">
<path d="M512 1024C794.77 1024 1024 794.77 1024 512C1024 229.23 794.77 0 512 0C229.23 0 0 229.23 0 512C0 794.77 229.23 1024 512 1024Z" fill="#FF837D"/>
<path d="M293 489.38C293 465.44 275 449.97 247.08 449.97H177.5L196.06 475.71V574.52H227.2V527.91H233.58L259.27 574.53H294.46L265.85 525.43C273.743 523.302 280.701 518.6 285.619 512.07C290.537 505.539 293.135 497.554 293 489.38ZM245.32 505.57H227.19V476H245.31C255.63 476 261.31 481.19 261.31 490.61C261.32 500.4 255.79 505.57 245.31 505.57H245.32ZM490.19 450H523.19L479 574.53H440.6L396.4 450H429.56L429.68 450.36L459.79 542.09L490.19 450ZM310.76 450H387.48V476H341.9V499H382.2V523.29H341.9V549.29H387.47V574.44H310.76V450ZM593.33 448.24C556.81 448.24 529.27 475.62 529.27 511.92C528.965 528.533 535.262 544.589 546.78 556.565C558.299 568.541 574.097 575.458 590.71 575.8H593.32C609.856 576.157 625.856 569.93 637.802 558.491C649.748 547.052 656.661 531.336 657.02 514.8V511.96C657 475.6 629.64 448.21 593.33 448.21V448.24ZM593.33 547.29C573.93 547.29 561.33 533.64 561.13 512.45V511.92C561.13 490.11 573.47 476.56 593.33 476.56C612.78 476.56 625.33 490.44 625.33 511.92C625.33 533.4 612.79 547.27 593.33 547.27V547.29ZM846.5 450V476H813.78V574.51H782.64V476H749.91V450H846.5ZM703.81 549.34H743.23V574.52H672.67V450H703.81V549.34Z" fill="white"/>
</g>
<defs>
<clipPath id="clip0_2_3336">
<rect width="1024" height="1024" fill="white"/>
</clipPath>
</defs>
</svg>

<svg xmlns="http://www.w3.org/2000/svg" width="1024" height="1024" fill="none">
   <g clip-path="url(#a)">
      <path fill="#FF837D" d="M512 1024c282.77 0 512-229.23 512-512S794.77 0 512 0 0 229.23 0 512s229.23 512 512 512Z"/>
      <path fill="#fff" d="M293 489.38c0-23.94-18-39.41-45.92-39.41H177.5l18.56 25.74v98.81h31.14v-46.61h6.38l25.69 46.62h35.19l-28.61-49.1A36.714 36.714 0 0 0 293 489.38Zm-47.68 16.19h-18.13V476h18.12c10.32 0 16 5.19 16 14.61.01 9.79-5.52 14.96-16 14.96h.01ZM490.19 450h33L479 574.53h-38.4L396.4 450h33.16l.12.36 30.11 91.73 30.4-92.09Zm-179.43 0h76.72v26H341.9v23h40.3v24.29h-40.3v26h45.57v25.15h-76.71V450Zm282.57-1.76c-36.52 0-64.06 27.38-64.06 63.68a62.744 62.744 0 0 0 61.44 63.88h2.61a62.37 62.37 0 0 0 63.7-61v-2.84c-.02-36.36-27.38-63.75-63.69-63.75v.03Zm0 99.05c-19.4 0-32-13.65-32.2-34.84v-.53c0-21.81 12.34-35.36 32.2-35.36 19.45 0 32 13.88 32 35.36 0 21.48-12.54 35.35-32 35.35v.02ZM846.5 450v26h-32.72v98.51h-31.14V476h-32.73v-26h96.59Zm-142.69 99.34h39.42v25.18h-70.56V450h31.14v99.34Z"/>
   </g>
   <defs>
      <clipPath id="a">
         <path fill="#fff" d="M0 0h1024v1024H0z"/>
      </clipPath>
   </defs>
</svg>
